images/3232802.svg

<?xml version="1.0" encoding="UTF-8"?>
<svg xmlns="http://www.w3.org/2000/svg" xmlns:xlink="http://www.w3.org/1999/xlink" width="300pt" height="300pt" viewBox="0 0 300 300" version="1.1">
<defs>
<g>
<symbol overflow="visible" id="glyph0-0">
<path style="stroke:none;" d="M 0.59375 2.125 L 0.59375 -8.46875 L 6.59375 -8.46875 L 6.59375 2.125 Z M 1.265625 1.453125 L 5.9375 1.453125 L 5.9375 -7.78125 L 1.265625 -7.78125 Z M 1.265625 1.453125 "/>
</symbol>
<symbol overflow="visible" id="glyph0-1">
<path style="stroke:none;" d="M 4.734375 -7.953125 C 3.867188 -7.953125 3.179688 -7.628906 2.671875 -6.984375 C 2.171875 -6.347656 1.921875 -5.472656 1.921875 -4.359375 C 1.921875 -3.265625 2.171875 -2.394531 2.671875 -1.75 C 3.179688 -1.113281 3.867188 -0.796875 4.734375 -0.796875 C 5.585938 -0.796875 6.265625 -1.113281 6.765625 -1.75 C 7.273438 -2.394531 7.53125 -3.265625 7.53125 -4.359375 C 7.53125 -5.472656 7.273438 -6.347656 6.765625 -6.984375 C 6.265625 -7.628906 5.585938 -7.953125 4.734375 -7.953125 Z M 4.734375 -8.90625 C 5.953125 -8.90625 6.925781 -8.492188 7.65625 -7.671875 C 8.394531 -6.847656 8.765625 -5.742188 8.765625 -4.359375 C 8.765625 -2.984375 8.394531 -1.882812 7.65625 -1.0625 C 6.925781 -0.238281 5.953125 0.171875 4.734375 0.171875 C 3.503906 0.171875 2.519531 -0.238281 1.78125 -1.0625 C 1.039062 -1.882812 0.671875 -2.984375 0.671875 -4.359375 C 0.671875 -5.742188 1.039062 -6.847656 1.78125 -7.671875 C 2.519531 -8.492188 3.503906 -8.90625 4.734375 -8.90625 Z M 4.734375 -8.90625 "/>
</symbol>
<symbol overflow="visible" id="glyph0-2">
<path style="stroke:none;" d="M 1.171875 -8.75 L 2.765625 -8.75 L 6.65625 -1.4375 L 6.65625 -8.75 L 7.796875 -8.75 L 7.796875 0 L 6.203125 0 L 2.328125 -7.3125 L 2.328125 0 L 1.171875 0 Z M 1.171875 -8.75 "/>
</symbol>
<symbol overflow="visible" id="glyph0-3">
<path style="stroke:none;" d="M 6.421875 -8.46875 L 6.421875 -7.3125 C 5.972656 -7.519531 5.546875 -7.675781 5.140625 -7.78125 C 4.742188 -7.894531 4.363281 -7.953125 4 -7.953125 C 3.351562 -7.953125 2.851562 -7.828125 2.5 -7.578125 C 2.15625 -7.328125 1.984375 -6.96875 1.984375 -6.5 C 1.984375 -6.113281 2.097656 -5.820312 2.328125 -5.625 C 2.554688 -5.425781 3 -5.269531 3.65625 -5.15625 L 4.359375 -5 C 5.242188 -4.832031 5.894531 -4.535156 6.3125 -4.109375 C 6.738281 -3.691406 6.953125 -3.128906 6.953125 -2.421875 C 6.953125 -1.566406 6.664062 -0.921875 6.09375 -0.484375 C 5.53125 -0.046875 4.695312 0.171875 3.59375 0.171875 C 3.1875 0.171875 2.75 0.125 2.28125 0.03125 C 1.8125 -0.0625 1.328125 -0.203125 0.828125 -0.390625 L 0.828125 -1.609375 C 1.304688 -1.335938 1.773438 -1.132812 2.234375 -1 C 2.703125 -0.863281 3.15625 -0.796875 3.59375 -0.796875 C 4.269531 -0.796875 4.789062 -0.925781 5.15625 -1.1875 C 5.53125 -1.457031 5.71875 -1.835938 5.71875 -2.328125 C 5.71875 -2.753906 5.582031 -3.085938 5.3125 -3.328125 C 5.050781 -3.578125 4.617188 -3.757812 4.015625 -3.875 L 3.296875 -4.015625 C 2.410156 -4.191406 1.769531 -4.46875 1.375 -4.84375 C 0.988281 -5.21875 0.796875 -5.738281 0.796875 -6.40625 C 0.796875 -7.1875 1.066406 -7.796875 1.609375 -8.234375 C 2.148438 -8.679688 2.898438 -8.90625 3.859375 -8.90625 C 4.273438 -8.90625 4.691406 -8.867188 5.109375 -8.796875 C 5.535156 -8.722656 5.972656 -8.613281 6.421875 -8.46875 Z M 6.421875 -8.46875 "/>
</symbol>
</g>
</defs>
<g id="surface38053">
<rect x="0" y="0" width="300" height="300" style="fill:rgb(100%,100%,100%);fill-opacity:1;stroke:none;"/>
<path style="fill:none;stroke-width:1.2;stroke-linecap:butt;stroke-linejoin:miter;stroke:rgb(0%,0%,0%);stroke-opacity:1;stroke-miterlimit:10;" d="M 144.203125 240.734375 L 153.238281 228.503906 "/>
<path style="fill:none;stroke-width:1.2;stroke-linecap:butt;stroke-linejoin:miter;stroke:rgb(100%,0%,0%);stroke-opacity:1;stroke-miterlimit:10;" d="M 153.238281 228.503906 L 162.269531 216.273438 "/>
<path style="fill:none;stroke-width:1.2;stroke-linecap:butt;stroke-linejoin:miter;stroke:rgb(100%,0%,0%);stroke-opacity:1;stroke-miterlimit:10;" d="M 162.269531 216.273438 L 156.195312 202.335938 "/>
<path style="fill:none;stroke-width:1.2;stroke-linecap:butt;stroke-linejoin:miter;stroke:rgb(0%,0%,0%);stroke-opacity:1;stroke-miterlimit:10;" d="M 156.195312 202.335938 L 150.121094 188.398438 "/>
<path style=" stroke:none;fill-rule:nonzero;fill:rgb(100%,100%,100%);fill-opacity:1;" d="M 157.269531 209.273438 L 167.269531 209.273438 L 167.269531 223.273438 L 157.269531 223.273438 Z M 157.269531 209.273438 "/>
<g style="fill:rgb(100%,0%,0%);fill-opacity:1;">
  <use xlink:href="#glyph0-1" x="157.269531" y="220.412109"/>
</g>
<path style="fill:none;stroke-width:1.2;stroke-linecap:butt;stroke-linejoin:miter;stroke:rgb(0%,0%,0%);stroke-opacity:1;stroke-miterlimit:10;" d="M 150.121094 188.398438 L 168.1875 163.9375 "/>
<path style="fill:none;stroke-width:1.2;stroke-linecap:butt;stroke-linejoin:miter;stroke:rgb(0%,0%,0%);stroke-opacity:1;stroke-miterlimit:10;" d="M 168.1875 163.9375 L 162.113281 150 "/>
<path style="fill:none;stroke-width:1.2;stroke-linecap:butt;stroke-linejoin:miter;stroke:rgb(0%,0%,100%);stroke-opacity:1;stroke-miterlimit:10;" d="M 162.113281 150 L 156.035156 136.0625 "/>
<path style="fill:none;stroke-width:1.2;stroke-linecap:butt;stroke-linejoin:miter;stroke:rgb(0%,0%,100%);stroke-opacity:1;stroke-miterlimit:10;" d="M 156.035156 136.0625 L 165.070312 123.832031 "/>
<path style="fill:none;stroke-width:1.2;stroke-linecap:butt;stroke-linejoin:miter;stroke:rgb(0%,0%,0%);stroke-opacity:1;stroke-miterlimit:10;" d="M 165.070312 123.832031 L 174.101562 111.601562 "/>
<path style="fill:none;stroke-width:1.2;stroke-linecap:butt;stroke-linejoin:miter;stroke:rgb(0%,0%,0%);stroke-opacity:1;stroke-miterlimit:10;" d="M 125.820312 132.648438 L 140.929688 134.355469 "/>
<path style="fill:none;stroke-width:1.2;stroke-linecap:butt;stroke-linejoin:miter;stroke:rgb(0%,0%,100%);stroke-opacity:1;stroke-miterlimit:10;" d="M 140.929688 134.355469 L 156.035156 136.0625 "/>
<path style=" stroke:none;fill-rule:nonzero;fill:rgb(100%,100%,100%);fill-opacity:1;" d="M 152.035156 129.0625 L 161.035156 129.0625 L 161.035156 143.0625 L 152.035156 143.0625 Z M 152.035156 129.0625 "/>
<g style="fill:rgb(0%,0%,100%);fill-opacity:1;">
  <use xlink:href="#glyph0-2" x="152.035156" y="140.201172"/>
</g>
<path style="fill:none;stroke-width:1.2;stroke-linecap:butt;stroke-linejoin:miter;stroke:rgb(0%,0%,0%);stroke-opacity:1;stroke-miterlimit:10;" d="M 174.101562 111.601562 L 189.210938 113.308594 "/>
<path style="fill:none;stroke-width:1.2;stroke-linecap:butt;stroke-linejoin:miter;stroke:rgb(0%,0%,100%);stroke-opacity:1;stroke-miterlimit:10;" d="M 189.210938 113.308594 L 204.320312 115.019531 "/>
<path style="fill:none;stroke-width:1.2;stroke-linecap:butt;stroke-linejoin:miter;stroke:rgb(0%,0%,0%);stroke-opacity:1;stroke-miterlimit:10;" d="M 177.929688 104.835938 L 190.015625 106.199219 "/>
<path style="fill:none;stroke-width:1.2;stroke-linecap:butt;stroke-linejoin:miter;stroke:rgb(0%,0%,100%);stroke-opacity:1;stroke-miterlimit:10;" d="M 190.015625 106.199219 L 202.101562 107.566406 "/>
<path style="fill:none;stroke-width:1.2;stroke-linecap:butt;stroke-linejoin:miter;stroke:rgb(0%,0%,0%);stroke-opacity:1;stroke-miterlimit:10;" d="M 161.953125 83.726562 L 174.101562 111.601562 "/>
<path style="fill:none;stroke-width:1.2;stroke-linecap:butt;stroke-linejoin:miter;stroke:rgb(0%,0%,100%);stroke-opacity:1;stroke-miterlimit:10;" d="M 204.320312 115.019531 L 213.351562 102.789062 "/>
<path style="fill:none;stroke-width:1.2;stroke-linecap:butt;stroke-linejoin:miter;stroke:rgb(0%,0%,0%);stroke-opacity:1;stroke-miterlimit:10;" d="M 213.351562 102.789062 L 222.382812 90.558594 "/>
<path style=" stroke:none;fill-rule:nonzero;fill:rgb(100%,100%,100%);fill-opacity:1;" d="M 200.320312 108.019531 L 209.320312 108.019531 L 209.320312 122.019531 L 200.320312 122.019531 Z M 200.320312 108.019531 "/>
<g style="fill:rgb(0%,0%,100%);fill-opacity:1;">
  <use xlink:href="#glyph0-2" x="200.320312" y="119.158203"/>
</g>
<path style="fill:none;stroke-width:1.2;stroke-linecap:butt;stroke-linejoin:miter;stroke:rgb(0%,0%,0%);stroke-opacity:1;stroke-miterlimit:10;" d="M 222.382812 90.558594 L 216.308594 76.621094 "/>
<path style="fill:none;stroke-width:1.2;stroke-linecap:butt;stroke-linejoin:miter;stroke:rgb(0%,0%,100%);stroke-opacity:1;stroke-miterlimit:10;" d="M 216.308594 76.621094 L 210.234375 62.683594 "/>
<path style="fill:none;stroke-width:1.2;stroke-linecap:butt;stroke-linejoin:miter;stroke:rgb(0%,0%,0%);stroke-opacity:1;stroke-miterlimit:10;" d="M 214.609375 90.628906 L 209.75 79.480469 "/>
<path style="fill:none;stroke-width:1.2;stroke-linecap:butt;stroke-linejoin:miter;stroke:rgb(0%,0%,100%);stroke-opacity:1;stroke-miterlimit:10;" d="M 209.75 79.480469 L 204.890625 68.328125 "/>
<path style="fill:none;stroke-width:1.2;stroke-linecap:butt;stroke-linejoin:miter;stroke:rgb(0%,0%,0%);stroke-opacity:1;stroke-miterlimit:10;" d="M 222.382812 90.558594 L 237.492188 92.265625 "/>
<path style="fill:none;stroke-width:1.2;stroke-linecap:butt;stroke-linejoin:miter;stroke:rgb(100%,0%,0%);stroke-opacity:1;stroke-miterlimit:10;" d="M 237.492188 92.265625 L 252.601562 93.972656 "/>
<path style="fill:none;stroke-width:1.2;stroke-linecap:butt;stroke-linejoin:miter;stroke:rgb(0%,0%,100%);stroke-opacity:1;stroke-miterlimit:10;" d="M 210.234375 62.683594 L 195.125 60.976562 "/>
<path style="fill:none;stroke-width:1.2;stroke-linecap:butt;stroke-linejoin:miter;stroke:rgb(0%,0%,0%);stroke-opacity:1;stroke-miterlimit:10;" d="M 195.125 60.976562 L 180.019531 59.265625 "/>
<path style=" stroke:none;fill-rule:nonzero;fill:rgb(100%,100%,100%);fill-opacity:1;" d="M 206.234375 55.683594 L 215.234375 55.683594 L 215.234375 69.683594 L 206.234375 69.683594 Z M 206.234375 55.683594 "/>
<g style="fill:rgb(0%,0%,100%);fill-opacity:1;">
  <use xlink:href="#glyph0-2" x="206.234375" y="66.822266"/>
</g>
<path style="fill:none;stroke-width:1.2;stroke-linecap:butt;stroke-linejoin:miter;stroke:rgb(0%,0%,0%);stroke-opacity:1;stroke-miterlimit:10;" d="M 180.019531 59.265625 L 161.953125 83.726562 "/>
<path style="fill:none;stroke-width:1.2;stroke-linecap:butt;stroke-linejoin:miter;stroke:rgb(0%,0%,0%);stroke-opacity:1;stroke-miterlimit:10;" d="M 183.96875 65.964844 L 169.515625 85.53125 "/>
<path style="fill:none;stroke-width:1.2;stroke-linecap:butt;stroke-linejoin:miter;stroke:rgb(0%,0%,0%);stroke-opacity:1;stroke-miterlimit:10;" d="M 161.953125 83.726562 L 146.84375 82.019531 "/>
<path style="fill:none;stroke-width:1.2;stroke-linecap:butt;stroke-linejoin:miter;stroke:rgb(0%,0%,100%);stroke-opacity:1;stroke-miterlimit:10;" d="M 146.84375 82.019531 L 131.738281 80.3125 "/>
<path style="fill:none;stroke-width:1.2;stroke-linecap:butt;stroke-linejoin:miter;stroke:rgb(0%,0%,100%);stroke-opacity:1;stroke-miterlimit:10;" d="M 131.738281 80.3125 L 122.703125 92.542969 "/>
<path style="fill:none;stroke-width:1.2;stroke-linecap:butt;stroke-linejoin:miter;stroke:rgb(0%,0%,0%);stroke-opacity:1;stroke-miterlimit:10;" d="M 122.703125 92.542969 L 113.671875 104.769531 "/>
<path style="fill:none;stroke-width:1.2;stroke-linecap:butt;stroke-linejoin:miter;stroke:rgb(0%,0%,100%);stroke-opacity:1;stroke-miterlimit:10;" d="M 135.683594 87.007812 L 128.460938 96.792969 "/>
<path style="fill:none;stroke-width:1.2;stroke-linecap:butt;stroke-linejoin:miter;stroke:rgb(0%,0%,0%);stroke-opacity:1;stroke-miterlimit:10;" d="M 128.460938 96.792969 L 121.234375 106.574219 "/>
<path style=" stroke:none;fill-rule:nonzero;fill:rgb(100%,100%,100%);fill-opacity:1;" d="M 127.738281 73.3125 L 136.738281 73.3125 L 136.738281 87.3125 L 127.738281 87.3125 Z M 127.738281 73.3125 "/>
<g style="fill:rgb(0%,0%,100%);fill-opacity:1;">
  <use xlink:href="#glyph0-2" x="127.738281" y="84.451172"/>
</g>
<path style="fill:none;stroke-width:1.2;stroke-linecap:butt;stroke-linejoin:miter;stroke:rgb(0%,0%,0%);stroke-opacity:1;stroke-miterlimit:10;" d="M 113.671875 104.769531 L 125.820312 132.648438 "/>
<path style="fill:none;stroke-width:1.2;stroke-linecap:butt;stroke-linejoin:miter;stroke:rgb(0%,0%,0%);stroke-opacity:1;stroke-miterlimit:10;" d="M 113.671875 104.769531 L 83.457031 101.355469 "/>
<path style="fill:none;stroke-width:1.2;stroke-linecap:butt;stroke-linejoin:miter;stroke:rgb(0%,0%,0%);stroke-opacity:1;stroke-miterlimit:10;" d="M 122.941406 130.519531 L 113.910156 142.75 "/>
<path style="fill:none;stroke-width:1.2;stroke-linecap:butt;stroke-linejoin:miter;stroke:rgb(100%,0%,0%);stroke-opacity:1;stroke-miterlimit:10;" d="M 113.910156 142.75 L 104.878906 154.980469 "/>
<path style="fill:none;stroke-width:1.2;stroke-linecap:butt;stroke-linejoin:miter;stroke:rgb(0%,0%,0%);stroke-opacity:1;stroke-miterlimit:10;" d="M 128.699219 134.773438 L 119.664062 147.003906 "/>
<path style="fill:none;stroke-width:1.2;stroke-linecap:butt;stroke-linejoin:miter;stroke:rgb(100%,0%,0%);stroke-opacity:1;stroke-miterlimit:10;" d="M 119.664062 147.003906 L 110.632812 159.230469 "/>
<path style=" stroke:none;fill-rule:nonzero;fill:rgb(100%,100%,100%);fill-opacity:1;" d="M 97.753906 150.105469 L 107.753906 150.105469 L 107.753906 164.105469 L 97.753906 164.105469 Z M 97.753906 150.105469 "/>
<g style="fill:rgb(100%,0%,0%);fill-opacity:1;">
  <use xlink:href="#glyph0-1" x="97.753906" y="161.244141"/>
</g>
<path style="fill:none;stroke-width:1.2;stroke-linecap:butt;stroke-linejoin:miter;stroke:rgb(0%,0%,0%);stroke-opacity:1;stroke-miterlimit:10;" d="M 83.457031 101.355469 L 62.929688 123.792969 "/>
<path style="fill:none;stroke-width:1.2;stroke-linecap:butt;stroke-linejoin:miter;stroke:rgb(0%,0%,0%);stroke-opacity:1;stroke-miterlimit:10;" d="M 76.125 98.769531 L 59.703125 116.71875 "/>
<path style="fill:none;stroke-width:1.2;stroke-linecap:butt;stroke-linejoin:miter;stroke:rgb(80%,80%,0%);stroke-opacity:1;stroke-miterlimit:10;" d="M 68.457031 74.902344 L 75.957031 88.128906 "/>
<path style="fill:none;stroke-width:1.2;stroke-linecap:butt;stroke-linejoin:miter;stroke:rgb(0%,0%,0%);stroke-opacity:1;stroke-miterlimit:10;" d="M 75.957031 88.128906 L 83.457031 101.355469 "/>
<path style="fill:none;stroke-width:1.2;stroke-linecap:butt;stroke-linejoin:miter;stroke:rgb(0%,0%,0%);stroke-opacity:1;stroke-miterlimit:10;" d="M 62.929688 123.792969 L 35.25 111.207031 "/>
<path style="fill:none;stroke-width:1.2;stroke-linecap:butt;stroke-linejoin:miter;stroke:rgb(0%,0%,0%);stroke-opacity:1;stroke-miterlimit:10;" d="M 35.25 111.207031 L 38.664062 80.992188 "/>
<path style="fill:none;stroke-width:1.2;stroke-linecap:butt;stroke-linejoin:miter;stroke:rgb(0%,0%,0%);stroke-opacity:1;stroke-miterlimit:10;" d="M 42.699219 108.988281 L 45.433594 84.816406 "/>
<path style="fill:none;stroke-width:1.2;stroke-linecap:butt;stroke-linejoin:miter;stroke:rgb(0%,0%,0%);stroke-opacity:1;stroke-miterlimit:10;" d="M 38.664062 80.992188 L 53.5625 77.949219 "/>
<path style="fill:none;stroke-width:1.2;stroke-linecap:butt;stroke-linejoin:miter;stroke:rgb(80%,80%,0%);stroke-opacity:1;stroke-miterlimit:10;" d="M 53.5625 77.949219 L 68.457031 74.902344 "/>
<path style=" stroke:none;fill-rule:nonzero;fill:rgb(100%,100%,100%);fill-opacity:1;" d="M 64.457031 67.902344 L 72.457031 67.902344 L 72.457031 81.902344 L 64.457031 81.902344 Z M 64.457031 67.902344 "/>
<g style="fill:rgb(80%,80%,0%);fill-opacity:1;">
  <use xlink:href="#glyph0-3" x="64.457031" y="79.041016"/>
</g>
<path style="fill:none;stroke-width:1.2;stroke-linecap:butt;stroke-linejoin:miter;stroke:rgb(100%,0%,0%);stroke-opacity:1;stroke-miterlimit:10;" d="M 252.601562 93.972656 L 258.675781 107.910156 "/>
<path style="fill:none;stroke-width:1.2;stroke-linecap:butt;stroke-linejoin:miter;stroke:rgb(0%,0%,0%);stroke-opacity:1;stroke-miterlimit:10;" d="M 258.675781 107.910156 L 264.75 121.847656 "/>
<path style=" stroke:none;fill-rule:nonzero;fill:rgb(100%,100%,100%);fill-opacity:1;" d="M 247.601562 86.972656 L 257.601562 86.972656 L 257.601562 100.972656 L 247.601562 100.972656 Z M 247.601562 86.972656 "/>
<g style="fill:rgb(100%,0%,0%);fill-opacity:1;">
  <use xlink:href="#glyph0-1" x="247.601562" y="98.111328"/>
</g>
</g>
</svg>

<svg xmlns="http://www.w3.org/2000/svg" xmlns:xlink="http://www.w3.org/1999/xlink" width="300pt" height="300pt" viewBox="0 0 300 300"><defs><symbol overflow="visible"><path d="M.594 2.125V-8.47h6V2.126zm.672-.672h4.671V-7.78h-4.67zm0 0"/></symbol><symbol overflow="visible" id="a"><path d="M4.734-7.953c-.867 0-1.554.324-2.062.97-.5.635-.75 1.51-.75 2.624 0 1.094.25 1.965.75 2.61.508.637 1.195.953 2.062.953.852 0 1.532-.316 2.032-.953.507-.645.765-1.516.765-2.61 0-1.113-.257-1.988-.764-2.624-.5-.645-1.18-.97-2.032-.97zm0-.953c1.22 0 2.192.414 2.922 1.234.74.824 1.11 1.93 1.11 3.313 0 1.376-.37 2.477-1.11 3.298C6.926-.24 5.953.17 4.734.17c-1.23 0-2.214-.41-2.953-1.234C1.04-1.882.673-2.984.673-4.36c0-1.382.367-2.488 1.11-3.312.738-.82 1.722-1.234 2.952-1.234zm0 0"/></symbol><symbol overflow="visible" id="b"><path d="M1.172-8.75h1.594l3.89 7.313V-8.75h1.14V0H6.204L2.328-7.313V0H1.172zm0 0"/></symbol><symbol overflow="visible" id="c"><path d="M6.422-8.47v1.158c-.45-.208-.875-.364-1.28-.47-.4-.113-.78-.17-1.142-.17-.648 0-1.148.124-1.5.374-.344.25-.516.61-.516 1.078 0 .387.114.68.344.875.227.2.672.355 1.328.47L4.36-5c.882.168 1.535.465 1.952.89.426.42.64.98.64 1.688 0 .856-.288 1.5-.858 1.938-.563.437-1.4.656-2.5.656-.406 0-.844-.047-1.313-.14C1.814-.064 1.33-.204.83-.392v-1.22c.477.274.945.477 1.406.61.47.137.922.203 1.36.203.676 0 1.195-.13 1.562-.39.375-.27.563-.65.563-1.14 0-.427-.138-.76-.407-1-.262-.25-.696-.43-1.297-.548l-.72-.14c-.886-.176-1.526-.454-1.92-.83-.388-.374-.58-.893-.58-1.56 0-.782.27-1.392.813-1.83.538-.445 1.288-.67 2.25-.67.413 0 .83.038 1.25.108.425.074.863.184 1.312.328zm0 0"/></symbol></defs><g><path fill="#fff" d="M0 0h300v300H0z"/><path d="M144.203 240.734l9.035-12.23" stroke-width="1.2" stroke="#000" stroke-miterlimit="10" fill="none"/><path d="M153.238 228.504l9.032-12.23M162.27 216.273l-6.075-13.937" stroke-width="1.2" stroke="#f00" stroke-miterlimit="10" fill="none"/><path d="M156.195 202.336l-6.074-13.938" stroke-width="1.2" stroke="#000" stroke-miterlimit="10" fill="none"/><path d="M157.27 209.273h10v14h-10zm0 0" fill="#fff"/><use xlink:href="#a" x="157.27" y="220.412" fill="#f00"/><path d="M150.12 188.398l18.067-24.46M168.188 163.938L162.113 150" stroke-width="1.2" stroke="#000" stroke-miterlimit="10" fill="none"/><path d="M162.113 150l-6.078-13.938M156.035 136.063l9.035-12.23" stroke-width="1.2" stroke="#00f" stroke-miterlimit="10" fill="none"/><path d="M165.07 123.832l9.032-12.23M125.82 132.648l15.11 1.707" stroke-width="1.2" stroke="#000" stroke-miterlimit="10" fill="none"/><path d="M140.93 134.355l15.105 1.708" stroke-width="1.2" stroke="#00f" stroke-miterlimit="10" fill="none"/><path d="M152.035 129.063h9v14h-9zm0 0" fill="#fff"/><use xlink:href="#b" x="152.035" y="140.201" fill="#00f"/><path d="M174.102 111.602l15.11 1.707" stroke-width="1.2" stroke="#000" stroke-miterlimit="10" fill="none"/><path d="M189.21 113.31l15.11 1.71" stroke-width="1.2" stroke="#00f" stroke-miterlimit="10" fill="none"/><path d="M177.93 104.836l12.086 1.363" stroke-width="1.2" stroke="#000" stroke-miterlimit="10" fill="none"/><path d="M190.016 106.2l12.086 1.366" stroke-width="1.2" stroke="#00f" stroke-miterlimit="10" fill="none"/><path d="M161.953 83.727l12.15 27.875" stroke-width="1.2" stroke="#000" stroke-miterlimit="10" fill="none"/><path d="M204.32 115.02l9.032-12.23" stroke-width="1.2" stroke="#00f" stroke-miterlimit="10" fill="none"/><path d="M213.352 102.79l9.03-12.23" stroke-width="1.2" stroke="#000" stroke-miterlimit="10" fill="none"/><path d="M200.32 108.02h9v14h-9zm0 0" fill="#fff"/><use xlink:href="#b" x="200.32" y="119.158" fill="#00f"/><path d="M222.383 90.56l-6.074-13.94" stroke-width="1.2" stroke="#000" stroke-miterlimit="10" fill="none"/><path d="M216.31 76.62l-6.076-13.936" stroke-width="1.2" stroke="#00f" stroke-miterlimit="10" fill="none"/><path d="M214.61 90.63l-4.86-11.15" stroke-width="1.2" stroke="#000" stroke-miterlimit="10" fill="none"/><path d="M209.75 79.48l-4.86-11.152" stroke-width="1.2" stroke="#00f" stroke-miterlimit="10" fill="none"/><path d="M222.383 90.56l15.11 1.706" stroke-width="1.2" stroke="#000" stroke-miterlimit="10" fill="none"/><path d="M237.492 92.266l15.11 1.707" stroke-width="1.2" stroke="#f00" stroke-miterlimit="10" fill="none"/><path d="M210.234 62.684l-15.11-1.707" stroke-width="1.2" stroke="#00f" stroke-miterlimit="10" fill="none"/><path d="M195.125 60.977l-15.105-1.71" stroke-width="1.2" stroke="#000" stroke-miterlimit="10" fill="none"/><path d="M206.234 55.684h9v14h-9zm0 0" fill="#fff"/><use xlink:href="#b" x="206.234" y="66.822" fill="#00f"/><path d="M180.02 59.266l-18.067 24.46M183.97 65.965L169.515 85.53M161.953 83.727l-15.11-1.707" stroke-width="1.2" stroke="#000" stroke-miterlimit="10" fill="none"/><path d="M146.844 82.02l-15.106-1.707M131.738 80.313l-9.035 12.23" stroke-width="1.2" stroke="#00f" stroke-miterlimit="10" fill="none"/><path d="M122.703 92.543l-9.03 12.227" stroke-width="1.2" stroke="#000" stroke-miterlimit="10" fill="none"/><path d="M135.684 87.008l-7.223 9.785" stroke-width="1.2" stroke="#00f" stroke-miterlimit="10" fill="none"/><path d="M128.46 96.793l-7.226 9.78" stroke-width="1.2" stroke="#000" stroke-miterlimit="10" fill="none"/><path d="M127.738 73.313h9v14h-9zm0 0" fill="#fff"/><use xlink:href="#b" x="127.738" y="84.451" fill="#00f"/><path d="M113.672 104.77l12.148 27.878M113.672 104.77l-30.215-3.415M122.94 130.52l-9.03 12.23" stroke-width="1.2" stroke="#000" stroke-miterlimit="10" fill="none"/><path d="M113.91 142.75l-9.03 12.23" stroke-width="1.2" stroke="#f00" stroke-miterlimit="10" fill="none"/><path d="M128.7 134.773l-9.036 12.23" stroke-width="1.2" stroke="#000" stroke-miterlimit="10" fill="none"/><path d="M119.664 147.004l-9.03 12.226" stroke-width="1.2" stroke="#f00" stroke-miterlimit="10" fill="none"/><path d="M97.754 150.105h10v14h-10zm0 0" fill="#fff"/><use xlink:href="#a" x="97.754" y="161.244" fill="#f00"/><path d="M83.457 101.355L62.93 123.793M76.125 98.77l-16.422 17.95" stroke-width="1.2" stroke="#000" stroke-miterlimit="10" fill="none"/><path d="M68.457 74.902l7.5 13.227" stroke-width="1.2" stroke="#cc0" stroke-miterlimit="10" fill="none"/><path d="M75.957 88.13l7.5 13.225M62.93 123.793l-27.68-12.586M35.25 111.207l3.414-30.215M42.7 108.988l2.734-24.172M38.664 80.992l14.898-3.043" stroke-width="1.2" stroke="#000" stroke-miterlimit="10" fill="none"/><path d="M53.563 77.95L68.457 74.9" stroke-width="1.2" stroke="#cc0" stroke-miterlimit="10" fill="none"/><path d="M64.457 67.902h8v14h-8zm0 0" fill="#fff"/><use xlink:href="#c" x="64.457" y="79.041" fill="#cc0"/><path d="M252.602 93.973l6.074 13.937" stroke-width="1.2" stroke="#f00" stroke-miterlimit="10" fill="none"/><path d="M258.676 107.91l6.074 13.938" stroke-width="1.2" stroke="#000" stroke-miterlimit="10" fill="none"/><path d="M247.602 86.973h10v14h-10zm0 0" fill="#fff"/><use xlink:href="#a" x="247.602" y="98.111" fill="#f00"/></g></svg>
